src/assets/tools/railway.svg

<svg width="100" height="100" viewBox="0 0 100 100" fill="none" xmlns="http://www.w3.org/2000/svg">
<g clip-path="url(#clip0_751_7958)">
<path d="M0.464453 42.7902C0.226232 44.4598 0.0712223 46.1403 0 47.8253H75.9569C75.6917 47.3071 75.3354 46.84 74.976 46.3827C61.9906 29.6063 55.0055 31.0609 45.0132 30.6347C41.6817 30.4977 39.4225 30.4426 26.1619 30.4426C19.0646 30.4426 11.3486 30.4607 3.83496 30.4807C2.8623 33.1061 1.92422 35.6508 1.46748 37.7209H40.3904V42.7902H0.464453ZM76.5557 52.8996H0.0389648C0.119043 54.2523 0.245215 55.5868 0.427441 56.9034H71.071C74.2202 56.9034 75.9831 55.1166 76.5557 52.8996ZM4.39619 70.7326C4.39619 70.7326 16.1075 99.4889 49.9473 99.9996C70.173 99.9996 87.5519 87.9873 95.446 70.7326H4.39619Z" fill="#ffffff"/>
<path d="M49.9467 -0.000366211C31.2454 -0.000366211 14.9718 10.2692 6.37793 25.45C13.0938 25.436 26.1732 25.428 26.1732 25.428H26.1763V25.423C41.6361 25.423 42.2107 25.492 45.2308 25.6181L47.1008 25.687C53.6145 25.9042 61.6206 26.6034 67.9201 31.3697C71.3396 33.9547 76.2767 39.6603 79.2197 43.7251C81.9405 47.4848 82.7232 51.8068 80.8733 55.9476C79.1706 59.7532 75.5069 62.0233 71.0703 62.0233H1.62988C1.62988 62.0233 2.04326 63.7756 2.66309 65.7099H97.4514C99.1347 60.6502 99.9952 55.3532 100 50.0209C100.001 22.3976 77.591 -0.000366211 49.9467 -0.000366211Z" fill="#ffffff"/>
</g>
<defs>
<clipPath id="clip0_751_7958">
<rect width="100" height="100" fill="white" transform="translate(0 -0.000366211)"/>
</clipPath>
</defs>
</svg>

<svg xmlns="http://www.w3.org/2000/svg" width="100" height="100" fill="none"><g fill="#fff" clip-path="url(#a)"><path d="M.464 42.79A50.85 50.85 0 0 0 0 47.825h75.957c-.265-.518-.622-.985-.981-1.442-12.985-16.777-19.97-15.322-29.963-15.748-3.331-.137-5.59-.192-18.851-.192-7.097 0-14.813.018-22.327.038-.973 2.625-1.91 5.17-2.368 7.24H40.39v5.07H.464ZM76.556 52.9H.039c.08 1.352.206 2.687.388 4.003h70.644c3.15 0 4.912-1.786 5.485-4.003ZM4.396 70.733S16.108 99.489 49.947 100c20.226 0 37.605-12.013 45.499-29.267H4.396Z"/><path d="M49.947 0C31.245 0 14.972 10.27 6.377 25.45c6.717-.014 19.796-.022 19.796-.022h.003v-.005c15.46 0 16.035.069 19.055.195l1.87.069c6.514.217 14.52.916 20.82 5.683 3.419 2.585 8.356 8.29 11.299 12.355 2.72 3.76 3.503 8.082 1.653 12.223-1.702 3.805-5.366 6.075-9.803 6.075H1.63s.413 1.753 1.033 3.687h94.788A49.842 49.842 0 0 0 100 50.02C100.001 22.399 77.591 0 49.947 0Z"/></g><defs><clipPath id="a"><path fill="#fff" d="M0 0h100v100H0z"/></clipPath></defs></svg>
